www/assets/icons/looks_3.svg

<svg xmlns="http://www.w3.org/2000/svg" width="24" height="24" viewBox="0 0 24 24" fill='currentColor'><path d="M19 3H5c-1.1 0-2 .9-2 2v14c0 1.1.9 2 2 2h14c1.1 0 2-.9 2-2V5c0-1.1-.9-2-2-2m-4 7.5c0 .83-.67 1.5-1.5 1.5.83 0 1.5.67 1.5 1.5V15a2 2 0 0 1-2 2H9v-2h4v-2h-2v-2h2V9H9V7h4a2 2 0 0 1 2 2z"/></svg>

<svg width="24" height="24" viewBox="0 0 24 24" xmlns="http://www.w3.org/2000/svg" fill='currentColor'><path d="M19 3H5C3.9 3 3 3.9 3 5V19C3 20.1 3.9 21 5 21H19C20.1 21 21 20.1 21 19V5C21 3.9 20.1 3 19 3ZM15 10.5C15 11.33 14.33 12 13.5 12C14.33 12 15 12.67 15 13.5V15C15 16.11 14.1 17 13 17H9V15H13V13H11V11H13V9H9V7H13C14.1 7 15 7.89 15 9V10.5Z"/></svg>
